X: 32439
T: Pipers Of Roguery, The
R: jig
M: 6/8
K: Dmixolydian
AFD D3|AFD EGB|AFD BcA|BGE EGB|
AFD D3|AFD EGB|cB/c/d cBG|EGB BAG:|
|:Ade f3|Adf gfA-|Ade f2g|afd cBG|
Ade f3|Adf gfa-|afg gef|fde cBG:|

